img/schoo.svg

<svg width="38" height="38" viewBox="0 0 38 38" fill="none" xmlns="http://www.w3.org/2000/svg">
<g clip-path="url(#clip0_3109_15193)">
<path d="M37.4434 34.8044H36.8102V19.2592H37.4434C37.6318 19.2592 37.8074 19.1639 37.9102 19.0059C38.0129 18.8478 38.0286 18.6486 37.9521 18.4765L35.5723 13.1219C35.483 12.921 35.2836 12.7914 35.0637 12.7914H23.3952L19.5567 8.95278V6.17032H23.1647C23.4721 6.17032 23.7213 5.92109 23.7213 5.61368V2.63899C23.7213 2.33158 23.4721 2.08235 23.1647 2.08235H19C18.6926 2.08235 18.4434 2.33158 18.4434 2.63899V8.95285L14.6048 12.7914H2.93641C2.71642 12.7914 2.51707 12.921 2.42771 13.1219L0.0479615 18.4765C-0.028558 18.6486 -0.0127494 18.8478 0.0898952 19.0059C0.19254 19.1639 0.368216 19.2592 0.556657 19.2592H1.18989V34.8044H0.556657C0.249243 34.8044 1.61967e-05 35.0537 1.61967e-05 35.3611C1.61967e-05 35.6685 0.249243 35.9177 0.556657 35.9177H37.4434C37.7508 35.9177 38 35.6685 38 35.3611C38 35.0537 37.7508 34.8044 37.4434 34.8044ZM22.608 5.05704H19.5567V3.19563H22.608V5.05704ZM3.29815 13.9047H13.4915L9.25028 18.1459H1.41322L3.29815 13.9047ZM2.30317 19.2592H9.4808C9.62842 19.2592 9.77003 19.2005 9.87438 19.0961L19 9.97054L28.1256 19.0961C28.23 19.2005 28.3716 19.2592 28.5192 19.2592H32.6838C32.9912 19.2592 33.2405 19.0099 33.2405 18.7025C33.2405 18.3951 32.9912 18.1459 32.6838 18.1459H28.7498L24.5085 13.9047H34.7019L36.5869 18.1459H35.0637C34.7562 18.1459 34.507 18.3951 34.507 18.7025C34.507 19.0099 34.7562 19.2592 35.0637 19.2592H35.6969V34.8044H24.3162V32.9813C24.3162 32.6739 24.067 32.4247 23.7596 32.4247H23.1264V27.6268C23.1264 27.3194 22.8771 27.0702 22.5697 27.0702H15.4304C15.123 27.0702 14.8738 27.3194 14.8738 27.6268V32.4247H14.2405C13.9331 32.4247 13.6839 32.6739 13.6839 32.9813V34.8044H2.30317V19.2592ZM22.0131 28.1834V32.4246H19.5567V28.1834H22.0131ZM18.4434 32.4246H15.987V28.1834H18.4434V32.4246ZM23.203 33.5379V34.8044H14.7971V33.5379H23.203Z" fill="white"/>
<path d="M19 24.0187C21.2752 24.0187 23.1263 22.1677 23.1263 19.8924C23.1263 17.6171 21.2753 15.7661 19 15.7661C16.7247 15.7661 14.8737 17.6171 14.8737 19.8924C14.8737 22.1676 16.7247 24.0187 19 24.0187ZM19 16.8793C20.6614 16.8793 22.0131 18.231 22.0131 19.8924C22.0131 21.5538 20.6614 22.9054 19 22.9054C17.3386 22.9054 15.9869 21.5539 15.9869 19.8924C15.9869 18.2309 17.3386 16.8793 19 16.8793Z" fill="white"/>
<path d="M19 21.639C19.3074 21.639 19.5566 21.3898 19.5566 21.0824V20.2365L20.4388 19.7954C20.7138 19.6579 20.8253 19.3236 20.6877 19.0486C20.5503 18.7736 20.2159 18.6621 19.941 18.7997L18.7511 19.3946C18.5625 19.4889 18.4434 19.6816 18.4434 19.8925V21.0824C18.4434 21.3898 18.6926 21.639 19 21.639Z" fill="white"/>
<path d="M12.4556 27.0701H4.12634C3.81893 27.0701 3.5697 27.3193 3.5697 27.6267V31.1964C3.5697 31.5038 3.81893 31.7531 4.12634 31.7531H5.31644C5.62385 31.7531 5.87308 31.5038 5.87308 31.1964C5.87308 30.889 5.62385 30.6398 5.31644 30.6398H4.68298V28.1834H7.73434V30.6398H7.69612C7.3887 30.6398 7.13948 30.889 7.13948 31.1964C7.13948 31.5038 7.3887 31.7531 7.69612 31.7531H12.4556C12.763 31.7531 13.0123 31.5038 13.0123 31.1964V27.6267C13.0123 27.3193 12.763 27.0701 12.4556 27.0701ZM11.899 30.6398H8.84762V28.1834H11.899V30.6398Z" fill="white"/>
<path d="M12.4556 21.1206H4.12634C3.81893 21.1206 3.5697 21.3699 3.5697 21.6773V25.247C3.5697 25.5544 3.81893 25.8036 4.12634 25.8036H12.4556C12.763 25.8036 13.0123 25.5544 13.0123 25.247V21.6773C13.0123 21.3699 12.763 21.1206 12.4556 21.1206ZM4.68298 22.2339H7.73434V24.6903H4.68298V22.2339ZM11.899 24.6903H8.84762V22.2338H11.899V24.6903Z" fill="white"/>
<path d="M25.5444 31.7531H33.8736C34.1811 31.7531 34.4303 31.5038 34.4303 31.1964V27.6267C34.4303 27.3193 34.1811 27.0701 33.8736 27.0701H25.5444C25.237 27.0701 24.9877 27.3193 24.9877 27.6267V31.1964C24.9877 31.5038 25.237 31.7531 25.5444 31.7531ZM33.317 30.6398H30.2657V28.1834H33.317V30.6398ZM26.101 28.1834H29.1524V30.6398H26.101V28.1834Z" fill="white"/>
<path d="M25.5444 25.8036H33.8736C34.1811 25.8036 34.4303 25.5543 34.4303 25.2469V21.6772C34.4303 21.3698 34.1811 21.1206 33.8736 21.1206H25.5444C25.237 21.1206 24.9877 21.3698 24.9877 21.6772V25.2469C24.9877 25.5544 25.237 25.8036 25.5444 25.8036ZM33.317 24.6903H30.2657V22.2339H33.317V24.6903ZM26.101 22.2339H29.1524V24.6903H26.101V22.2339Z" fill="white"/>
</g>
<defs>
<clipPath id="clip0_3109_15193">
<rect width="38" height="38" fill="white"/>
</clipPath>
</defs>
</svg>

<svg width="38" height="38" fill="none" xmlns="http://www.w3.org/2000/svg"><g clip-path="url(#clip0_3109_15193)" fill="#fff"><path d="M37.443 34.804h-.633V19.26h.633a.557.557 0 00.51-.782l-2.38-5.355a.557.557 0 00-.51-.33H23.396l-3.838-3.84V6.17h3.608a.556.556 0 00.556-.556V2.639a.557.557 0 00-.556-.557H19a.557.557 0 00-.557.557v6.314l-3.838 3.838H2.936c-.22 0-.419.13-.508.33l-2.38 5.356a.557.557 0 00.509.782h.633v15.545H.557a.557.557 0 000 1.114h36.886a.557.557 0 000-1.114zM22.608 5.057h-3.051V3.196h3.051v1.861zm-19.31 8.848h10.194l-4.242 4.24H1.413l1.885-4.24zm-.995 5.354h7.178a.553.553 0 00.393-.163L19 9.971l9.126 9.125a.557.557 0 00.393.163h4.165a.557.557 0 000-1.113H28.75l-4.241-4.241h10.193l1.885 4.24h-1.523a.557.557 0 100 1.114h.633v15.545h-11.38v-1.823a.557.557 0 00-.557-.556h-.634v-4.798a.557.557 0 00-.556-.557h-7.14a.557.557 0 00-.556.557v4.798h-.633a.557.557 0 00-.557.556v1.823H2.304V19.26zm19.71 8.924v4.242h-2.456v-4.242h2.456zm-3.57 4.242h-2.456v-4.242h2.456v4.242zm4.76 1.113v1.266h-8.406v-1.266h8.406z"/><path d="M19 24.019a4.131 4.131 0 004.126-4.127A4.13 4.13 0 0019 15.766a4.13 4.13 0 00-4.126 4.126A4.131 4.131 0 0019 24.02zm0-7.14a3.017 3.017 0 013.013 3.013A3.016 3.016 0 0119 22.905a3.016 3.016 0 01-3.013-3.013A3.016 3.016 0 0119 16.88z"/><path d="M19 21.639c.307 0 .557-.25.557-.557v-.846l.882-.44a.556.556 0 10-.498-.996l-1.19.595a.557.557 0 00-.308.497v1.19c0 .308.25.557.557.557zm-6.544 5.431h-8.33a.557.557 0 00-.556.557v3.57c0 .307.249.556.556.556h1.19a.557.557 0 000-1.113h-.633v-2.457h3.051v2.457h-.038a.557.557 0 100 1.113h4.76c.307 0 .556-.25.556-.557v-3.57a.557.557 0 00-.556-.556zm-.557 3.57H8.848v-2.457h3.051v2.457zm.557-9.52h-8.33a.557.557 0 00-.556.557v3.57c0 .307.249.557.556.557h8.33c.307 0 .556-.25.556-.557v-3.57a.557.557 0 00-.556-.556zm-7.773 1.114h3.051v2.456H4.683v-2.456zm7.216 2.456H8.848v-2.456h3.051v2.456zm13.645 7.063h8.33c.307 0 .556-.25.556-.557v-3.57a.557.557 0 00-.556-.556h-8.33a.557.557 0 00-.556.557v3.57c0 .307.249.556.556.556zm7.773-1.113h-3.051v-2.457h3.051v2.457zm-7.216-2.457h3.051v2.457h-3.051v-2.457zm-.557-2.379h8.33c.307 0 .556-.25.556-.557v-3.57a.557.557 0 00-.556-.556h-8.33a.557.557 0 00-.556.556v3.57c0 .307.249.557.556.557zm7.773-1.114h-3.051v-2.456h3.051v2.456zm-7.216-2.456h3.051v2.456h-3.051v-2.456z"/></g><defs><clipPath id="clip0_3109_15193"><path fill="#fff" d="M0 0h38v38H0z"/></clipPath></defs></svg>
